X:3
T:T\^y Coch Caerdydd
T:The Red House of Cardiff
M:4/4
K:G
L:1/4
B/2A/2 | G g g/2f/2 e | d2 c B | c e e/2d/2 c | B/2c/2B/2A/2 G B/2A/2 | 
 G g g/2f/2 e | d2 c B | B G F/2G/2A/2F/2 | G B G :: \
L:1/8
 Bc | dcBA GABc | d2 d2 dcBA | cBAG FGAB | c2 c2 cBAG | dcBA GABc | d2 d2
 dcBA | B2 G2 FGAF | G2 B2 G2 :: \
L:1/4
 G | A/2B/2 c c c | A/2B/2 c c c | B/2c/2 d d d | B/2c/2 d d d | 
 A/2B/2 c c c | A/2B/2 c c c | B G F/2G/2A/2F/2 | G B G :|
